X: 1
P: O as I Was Kiss'd the Streen
C: Robert Bremner Collection, 1765
C: arr. Terry Traub, 4-22-04
M: 6/8
L: 1/8
R: Jig
K: G
|: E|"Am"ABA ABd|"Am"e/f/gB "D"A2 c|"G"BAB GAB|"G"B/c/dB G2 B|"Am"cBc "G"dcd|"C"ede "F"a2 g|"Em"edB ABd|"Am"e2 A A2 :|
|: ^g|"Am"a2 A ABA|"Am"aAA "D"A2 f|"G"g2 G GAG|"G"BAB GAB|"C"cBc "G"dcd|"C"ede "F"a2 g|"Am"edB "Em"ABd|"Am"e2 A A2 :|
